X:1
T:Gabriel’s Message
T:Gabriel’s Message
T:Piae Cantiones, 1582, arr. Thomas Helmore, 1853
T:Tr. from the Latin by John Mason Neale, 1853
T:Public Domain Courtesy of the Cyber Hymnal™
C:Piae Cantiones, 1582, arr. Thomas Helmore, 1853
Z:Public Domain
Z:Courtesy of the Cyber Hymnal™
%%score ( 1 2 ) ( 3 4 )
L:1/8
Q:1/4=110
M:4/4
K:F
V:1 treble 
V:2 treble 
V:3 bass 
V:4 bass 
V:1
 [EG]2 [DF]2 [DB]2 [Fc]2 | [Fd]2 [Fc]2 [Fd]4 | [Fc]2 [Fd]2 [G_e]2 [Fd]2 | [Fd]2 c2 [DB]4 | %4
w: 1.~Ga- briel’s mess- age|does a- way|Sa- tan’s curse and|Sa- tan’s sway;|
w: 2.~He that comes des-|pised shall reign;|He that can- not|die, be slain;|
w: 3.~Like its like shall|o- ver- throw:|By a Tree pre-|vailed the foe;|
w: 4.~Man was lost a|gar- den in;|In a gar- den|man shall win;|
w: 5.~Weak- ness shall the|strong con- found;|By the hands, in|babe- clothes wound,|
w: 6.~By the sword that|was his own|By that sword, and|that a- lone;|
w: 7.~Art by art shall|be as- sailed;|To the cross shall|Life be nailed;|
 [Fc]4 [Fd]4 | [FB]2 [FA]2 [EG]2 [DF]2 | [DG]8 |!<(! [FA]2 [_EG]2 [FB]4!<)! | %8
w: This was|wrought by Christ- mas|Day:|There- fore sing—|
w: Death by|death its death shall|gain:|There- fore sing—|
w: From a|Tree shall heal- ing|grow:|There- fore sing—|
w: Wo- man’s|faith end wo- man’s|sin:|There- fore sing—|
w: Ad- am’s|sin shall be un-|bound;|There- fore sing—|
w: Shall Go-|li- ath be o’er-|thrown;|There- fore sing—|
w: From the|grave shall hope be|hailed;|There- fore sing—|
 [Ac]2 d2 [GB]2 [FA]2 | [_EG]2 [DF]2 !fermata![DG]4 |] %10
w: Glo- ry to the|In- fant King!|
w: Glo- ry to the|In- fant King!|
w: Glo- ry to the|In- fant King!|
w: Glo- ry to the|In- fant King!|
w: Glo- ry to the|In- fant King!|
w: Glo- ry to the|In- fant King!|
w: Glo- ry to the|In- fant King!|
V:2
 x8 | x8 | x8 | x2 (F_E) x4 | x8 | x8 | x8 | x8 | x2 (BA) x4 | x8 |] %10
V:3
 [C,C]2 [D,A,]2 G,2 [F,A,]2 | [D,A,]2 [F,A,]2 [B,,B,]4 | [F,A,]2 B,2 ([G,B,][A,C]) [B,D]2 | %3
 ([D,F,][_E,G,]) [F,A,]2 [B,,B,]4 | [F,A,]4 [B,,B,]4 | [D,B,]2 [F,C]2 [C,C]2 [D,A,]2 | [G,,B,]8 | %7
 B,2 [_E,B,]2 [B,,D]4 | [F,F]2 [D,F]2 (_ED) [F,C]2 | ([G,B,][A,C]) ([B,D][A,C]) !fermata![G,B,]4 |] %10
V:4
 x4 G,2 x2 | x8 | x2 B,2 x4 | x8 | x8 | x8 | x8 | B,2 x6 | x4 _E,2 x2 | x8 |] %10

